svgs/thin/chess-clock.svg

<svg xmlns="http://www.w3.org/2000/svg" viewBox="0 0 640 512"><!-- Font Awesome Pro 6.0.0-alpha2 by @fontawesome - https://fontawesome.com License - https://fontawesome.com/license (Commercial License) --><path d="M176 192C114.145 192 64 242.145 64 304S114.145 416 176 416S288 365.855 288 304S237.855 192 176 192ZM176 400C123.066 400 80 356.934 80 304C80 251.064 123.066 208 176 208S272 251.064 272 304C272 356.934 228.934 400 176 400ZM464 192C402.145 192 352 242.145 352 304S402.145 416 464 416S576 365.855 576 304S525.855 192 464 192ZM464 400C411.066 400 368 356.934 368 304C368 251.064 411.066 208 464 208S560 251.064 560 304C560 356.934 516.934 400 464 400ZM576 128H184V48H248C252.406 48 256 44.422 256 40S252.406 32 248 32H104C99.594 32 96 35.578 96 40S99.594 48 104 48H168V128H64C28.652 128 0 156.652 0 192V416C0 451.346 28.652 480 64 480H576C611.348 480 640 451.346 640 416V192C640 156.652 611.348 128 576 128ZM624 416C624 442.467 602.469 464 576 464H64C37.531 464 16 442.467 16 416V192C16 165.533 37.531 144 64 144H576C602.469 144 624 165.533 624 192V416ZM392 96H536C540.406 96 544 92.422 544 88S540.406 80 536 80H392C387.594 80 384 83.578 384 88S387.594 96 392 96ZM176 232C171.594 232 168 235.578 168 240V304C168 308.422 171.594 312 176 312S184 308.422 184 304V240C184 235.578 180.406 232 176 232ZM503.594 253.094L458.344 298.344C455.219 301.469 455.219 306.531 458.344 309.656C459.906 311.219 461.938 312 464 312S468.094 311.219 469.656 309.656L514.906 264.406C518.031 261.281 518.031 256.219 514.906 253.094S506.719 249.969 503.594 253.094Z"/></svg>

<svg xmlns="http://www.w3.org/2000/svg" viewBox="0 0 640 512"><!--! Font Awesome Pro 6.0.0-alpha3 by @fontawesome - https://fontawesome.com License - https://fontawesome.com/license (Commercial License) --><path d="M176 192C114.1 192 64 242.1 64 304S114.1 416 176 416S288 365.9 288 304S237.9 192 176 192zM176 400c-52.93 0-96-43.07-96-96c0-52.94 43.07-96 96-96s96 43.06 96 96C272 356.9 228.9 400 176 400zM464 192C402.1 192 352 242.1 352 304s50.14 112 112 112S576 365.9 576 304S525.9 192 464 192zM464 400c-52.93 0-96-43.07-96-96c0-52.94 43.07-96 96-96s96 43.06 96 96C560 356.9 516.9 400 464 400zM576 128H184V48h64C252.4 48 256 44.42 256 40S252.4 32 248 32h-144C99.59 32 96 35.58 96 40S99.59 48 104 48h64V128H64C28.65 128 0 156.7 0 192v224c0 35.35 28.65 64 64 64h512c35.35 0 64-28.65 64-64V192C640 156.7 611.3 128 576 128zM624 416c0 26.47-21.53 48-48 48H64c-26.47 0-48-21.53-48-48V192c0-26.47 21.53-48 48-48h512c26.47 0 48 21.53 48 48V416zM392 96h144C540.4 96 544 92.42 544 88S540.4 80 536 80h-144C387.6 80 384 83.58 384 88S387.6 96 392 96zM176 232c-4.406 0-8 3.578-8 8v64c0 4.422 3.594 8 8 8S184 308.4 184 304v-64C184 235.6 180.4 232 176 232zM503.6 253.1l-45.25 45.25c-3.125 3.125-3.125 8.188 0 11.31C459.9 311.2 461.9 312 464 312s4.094-.7813 5.656-2.344l45.25-45.25c3.125-3.125 3.125-8.188 0-11.31S506.7 249.1 503.6 253.1z"/></svg>
